X:1
T:Title
%%score { ( 1 4 ) | ( 2 3 5 ) }
L:1/8
Q:1/4=100
M:4/4
K:C
V:1 treble nm="Grand Piano"
V:4 treble 
V:2 bass 
V:3 bass 
V:5 bass 
V:1
 [CEG]>[EG] [CEA]>[Ec] [G,CE]2 [G,CE]2 | [CEG]>[EG] [CEA]>c F2[K:bass] G,,2 | d>d ^c>e d2 =c2 | %3
w: J.~Howard~Entwisle * * * * *|||
 B>B A>^G [B,F=G]2 z2 | [CEG]>[EG] [CEA]>[Ec] [G,CE]2 [G,CE]2 | [Ec]2 .[D^Fc]2 [DGB]4 | %6
w: |||
 [^Fd]>[Fd] [Fe]>[Fd] [Ge]2 [Gd]2 | [^Fd]>[Fc] [FB]>A z f (3[Af]ed | %8
w: ||
 [EGd]>[Gc] .[EGc]2 [CEG]2 [CEG]2 | z4 d2 z2 | [Af]>[Af] [Ae]>[Ae] [DAd]<[Ad] [_EAc]>[EAc] | %11
w: |||
 [EGc]2 .[G,B,Fd]2 [Ec]4 |] %12
w: |
V:2
 z z/ C/ z z/ C/ C,2 G,,2 | z z/ C/ z z/ [CE]/ [D,G,B,]2 z2 | F>F F>F [G,=B,F]2 [G,A,F]2 | %3
 F>F F>F[K:bass] G,2 G,,,2 | z z/ C/ z z/ C/ C,2 G,,2 | z z/[K:treble] c/ (3z BA G,2[K:bass] D,2 | %6
 [A,C]2 [D,C]2 [G,B,]2 [D,B,]2 | [A,C]2 z z/[K:treble] ^F/ z A[K:bass] (3z[K:treble] G-[=FG] | %8
 z z/ E/ (3z[K:treble] de[K:bass] C,2 G,,2 | z2 C2[K:treble][K:bass] C2 z2 | %10
 [D,D]>[D,D] [E,^C]>[E,C] F,<D ^F,>F, | G,2 z G, [C,G,]4 |] %12
V:3
 C,2 G,,2 z4 | C,2 G,,2 z4 | [G,B,]2 [G,_B,]2 z4 | [G,D]2 [G,C]2[K:bass] z4 | C,2 G,,2 z4 | %5
 A,,2[K:treble] D,2 z4[K:bass] | x8 | z2 [D,C]2[K:treble] [G,B,]2[K:bass] G,,,2[K:treble] | %8
 C,2 G,,2[K:treble][K:bass] z4 | [C,G,]2 (3z[K:treble] FG[K:bass] F,4 | x8 | z2 G,,2 z4 |] %12
V:4
 x8 | x6[K:bass] x2 | x8 | x8 | x8 | x8 | x8 | z4 .G4 | x8 | [Ec]>[Ec] (3[Ec]de z z/ C/ D2 | x8 | %11
 x8 |] %12
V:5
 x8 | x8 | x8 | x4[K:bass] x4 | x8 | x3/2[K:treble] x9/2[K:bass] x2 | x8 | %7
 x7/2[K:treble] x5/2[K:bass] x2/3[K:treble] x4/3 | x8/3[K:treble] x4/3[K:bass] x4 | %9
 z2 C,2[K:treble][K:bass] z4 | x8 | x8 |] %12

